!!!COM: Palestrina, Giovanni Perluigi da
!!!OPR: Missa Dies sanctificatus
!!!OMD: Gloria
!!!OTL: First Section
**kern	**kern	**kern	**kern
*Ibass	*Itenor	*Icalto	*Icant
!Bassus	!Tenor	!Altus	!Cantus
*clefF4	*clefGv2	*clefG2	*clefG2
*k[]	*k[]	*k[]	*k[]
*G:mix	*G:mix	*G:mix	*G:mix
*M4/2	*M4/2	*M4/2	*M4/2
=1	=1	=1	=1
1r	1r	1r	0dd
1G	1g	1b	.
=2	=2	=2	=2
1d	1f#	1a	1dd
2c	2g	2cc	2ee
2c	2g	2cc	2ee
=3	=3	=3	=3
2G	2g	2b	2dd
2G	2d	2g	2b
2A	2c	2e	2cc
2A	2c	2f#	2cc
=4	=4	=4	=4
2G	2d	2g	2b
1F	1f	1a	1cc
2E	2g	2g	2cc
=5	=5	=5	=5
1.F	2.a	4f	1.cc
.	.	4e	.
.	.	4f	.
.	4g	4g	.
.	2f	2a	.
2G	2d	[2g	2b
=6	=6	=6	=6
1D	1d	2g]	1a
.	.	2f#	.
2G	1d	2g	1b
2G	.	2d	.
=7	=7	=7	=7
2c	1r	2e	2r
2A	.	2f#	2a
1G	2r	1g	[1b
.	2d	.	.
=8	=8	=8	=8
1r	2g	2r	2b]
.	2e	2g	2cc
2r	1d	2a	1dd
2G	.	2b	.
=9	=9	=9	=9
1A	0r	2cc	2r
.	.	2.a	2cc
2B	.	.	2dd
.	.	4g	.
2c	.	2g	[2ee
=10	=10	=10	=10
1A	1c	4g	4ee]
.	.	8f#	4dd
.	.	8e	.
.	.	2f#	2cc
1G	1d	2.g	2b
.	.	.	[2dd
.	.	4f#	.
=11	=11	=11	=11
1r	2e	2g	4dd]
.	.	.	4cc
.	2f	1a	1cc
2r	1d	.	.
2G	.	4g	2b
.	.	4f	.
=12	=12	=12	=12
1A	2c	1e	1cc
.	2c	.	.
2B	2d	2r	1r
2c	[2e	2g	.
=13	=13	=13	=13
1A	2e]	1a	1r
.	2f#	.	.
1G	1g	1b	2r
.	.	.	2g
=14	=14	=14	=14
0r	2.f	2cc	1a
.	.	2.a	.
.	4f	.	.
.	2e	.	2b
.	.	4g	.
.	2c	[2g	2cc
=15	=15	=15	=15
2r	1d	4g]	1a
.	.	8f	.
.	.	8e	.
2D	.	2f#	.
2E	2r	2g	1r
2F	2A	2d	.
=16	=16	=16	=16
2G	2B	2e	1r
2A	2c	2e	.
4D	2d	2f	1a
4E	.	.	.
4F	2c	[2a	.
8E	.	.	.
8F	.	.	.
=17	=17	=17	=17
2G	2B	4a]	2b
.	.	4g	.
2E	4A	1g	2cc
.	4G	.	.
1D	1A	.	2dd
.	.	2f#	2dd
=18	=18	=18	=18
2r	1G	1g	1b
1G	.	.	.
.	2r	2r	2r
2G	[2g	[2b	[2dd
=19	=19	=19	=19
0G	2g]	2b]	2dd]
.	2g	2b	2dd
.	1g	1b	1dd
=20	=20	=20	=20
1.c	1.g	2cc	2.ee
.	.	2c	.
.	.	.	4dd
.	.	2.e	2cc
2A	2c	.	2cc
.	.	4f#	.
=21	=21	=21	=21
1G	1d	1g	1b
2.F	2.f	[1a	4cc
.	.	.	4b
.	.	.	4a
4G	8e	.	4b
.	8d	.	.
=22	=22	=22	=22
4A	1c	2a]	4cc
4B	.	.	4dd
1c	.	2g	4ee
.	.	.	4cc
.	1G	2r	1dd
2B	.	[2g	.
=23	=23	=23	=23
1c	2r	4g]	1ee
.	.	4g	.
.	2.g	2g	.
1r	.	2.c	2r
.	4g	.	.
.	2g	.	[2gg
.	.	4d	.
=24	=24	=24	=24
0r	2.c	2.e	4gg]
.	.	.	4gg
.	.	.	2gg
.	4d	4f	.
.	2e	2g	1cc
.	[2f	[2a	.
=25	=25	=25	=25
0r	2f]	2a]	1dd
.	2g	2b	.
.	4c	2cc	2ee
.	4d	.	.
.	4e	4c	2cc
.	4f	4d	.
=26	=26	=26	=26
0r	2g	4e	1b
.	.	4f	.
.	2G	1g	.
.	1d	.	1a
.	.	2f#	.
=27	=27	=27	=27
2r	2r	1g	2r
2.c	2.e	.	2.g
.	.	1r	.
4c	4e	.	4g
2c	2e	.	2g
=28	=28	=28	=28
1F	1f	0r	4a
.	.	.	4b
.	.	.	4cc
.	.	.	4a
1G	2d	.	1b
.	[2e	.	.
=29	=29	=29	=29
2.A	4e]	2r	2cc
.	4d	.	.
.	4c	2.cc	1a
4G	4B	.	.
2F	2A	.	.
.	.	4cc	.
2E	2c	2cc	2ee
=30	=30	=30	=30
1D	2B	1f	2.ff
.	2A	.	.
.	.	.	4dd
1C	1c	1g	4ee
.	.	.	4ff
.	.	.	4gg
.	.	.	4ff
=31	=31	=31	=31
0r	0r	2.a	4ee
.	.	.	4dd
.	.	.	4cc
.	.	4g	4b
.	.	2f	4a
.	.	.	4b
.	.	2e	[2cc
=32	=32	=32	=32
1r	1r	1d	4cc]
.	.	.	8b
.	.	.	8a
.	.	.	2b
2r	2r	1c	2cc
[2c	[2g	.	[2ee
=33	=33	=33	=33
2c]	2g]	2r	2ee]
2B	2g	1g	2dd
1A	1c	.	2ee
.	.	2f#	4dd
.	.	.	4cc
=34	=34	=34	=34
1G	2d	1g	1b
.	1e	.	.
1A	.	2e	2cc
.	[2c	[2a	2ee
=35	=35	=35	=35
2F	2c]	2a]	1.dd
2G	2B	1g	.
1D	2A	.	.
.	2A	2f#	2dd
=36	=36	=36	=36
2r	2G	[0g	0b
2.G	2.d	.	.
4G	4d	.	.
2G	2d	.	.
=37	=37	=37	=37
2c	2e	0g]	1r
2B	2d	.	.
2e	2c	.	2r
2d	2B	.	[2g
=38	=38	=38	=38
2.c	1.e	2r	4g]
.	.	.	4g
.	.	2.c	2g
4B	.	.	.
2A	.	.	[1cc
.	.	4c	.
2A	2f#	2c	.
=39	=39	=39	=39
1G	0g	2e	2cc]
.	.	2d	2b
1r	.	2c	2ee
.	.	2B	2dd
=40	=40	=40	=40
0r	1r	4A	4cc
.	.	4G	4b
.	.	1g	4b
.	.	.	8a
.	.	.	8g
.	[1d	.	2a
.	.	2f	2a
=41	=41	=41	=41
0A	2d]	1e	0a
.	4c	.	.
.	4B	.	.
.	4c	[1e	.
.	4d	.	.
.	4e	.	.
.	4f	.	.
=42	=42	=42	=42
1G	1g	1e]	0r
1B-	1f	1d	.
=43	=43	=43	=43
2A	1r	1f	0a
2F	.	.	.
2.A	[1e	2e	.
.	.	4c	.
4B	.	4d	.
=44	=44	=44	=44
1c	1e]	4e	1g
.	.	4f	.
.	.	1g	.
4G	1d	.	1b-
4A	.	.	.
4B-	.	[2f	.
4c	.	.	.
=45	=45	=45	=45
1d	1f	4f]	[0a
.	.	4e	.
.	.	1d	.
1A	1e	.	.
.	.	2c#	.
=46	=46	=46	=46
2r	2r	1d	1a]
2d	2d	.	.
2B	2d	1r	1r
2c	2e	.	.
=47	=47	=47	=47
1A	1f#	1r	1r
1G	1g	2r	2r
.	.	2d	2dd
=48	=48	=48	=48
1r	1r	2d	2b
.	.	2e	2cc
1d	2r	1f#	1a
.	[2d	.	.
=49	=49	=49	=49
2B	2d]	1g	1g
2c	1e	.	.
1A	.	1r	2r
.	2f#	.	2a
=50	=50	=50	=50
1G	1g	2r	2b
.	.	2g	2.dd
1r	1r	2e	.
.	.	.	4cc
.	.	2f	[2cc
=51	=51	=51	=51
1G	2r	2d	2cc]
.	2d	2g	2b
2E	2e	2g	1cc
2F	[2c	2a	.
=52	=52	=52	=52
1D	2c]	1f	2r
.	2B	.	2dd
1C	1c	2e	2ee
.	.	[2cc	2cc
=53	=53	=53	=53
2r	1g	2cc]	2ee
2G	.	2b	2.dd
2A	2e	1a	.
.	.	.	4cc
2F	2f	.	[2cc
=54	=54	=54	=54
1G	2e	0g	4cc]
.	.	.	8b
.	.	.	8a
.	2.d	.	2b
1C	.	.	1ee
.	4c	.	.
.	[2c	.	.
=55	=55	=55	=55
[0G	2c]	[0g	[0dd
.	4B	.	.
.	4A	.	.
.	1B	.	.
=56	=56	=56	=56
0G]	0B	0g]	0dd]
=57	=57	=57	=57
0r	0r	2r	1dd
.	.	2g	.
.	.	1g	1dd
=58	=58	=58	=58
1r	1r	4c	1ee
.	.	4d	.
.	.	4e	.
.	.	4f	.
1G	2r	4g	1dd
.	.	4a	.
.	2d	4b	.
.	.	4cc	.
=59	=59	=59	=59
1G	1d	2dd	2b
.	.	2g	2b
4C	1e	[1g	2cc
4D	.	.	.
4E	.	.	4b
4F	.	.	4a
=60	=60	=60	=60
2G	1d	2g]	2b
2D	.	2f	2.a
2G	2B	2d	.
.	.	.	4g
2G	2B	[2e	[2g
=61	=61	=61	=61
1A	1c	2e]	2g]
.	.	4d	2f#
.	.	4c	.
2G	2B	1d	1g
[2G	2d	.	.
=62	=62	=62	=62
2G]	2e	1r	0r
2A	2f	.	.
2B	2.g	2r	.
[2c	.	2g	.
.	4f	.	.
=63	=63	=63	=63
2c]	2e	2a	0r
2B	2d	2b	.
1A	4e	[1cc	.
.	4d	.	.
.	4c	.	.
.	4d	.	.
=64	=64	=64	=64
1G	4e	2cc]	1g
.	4f	.	.
.	2g	2b	.
1r	2f	2a	2a
.	4e	4g	2b
.	4d	4f	.
=65	=65	=65	=65
0r	1c	4e	1cc
.	.	4f#	.
.	.	1g	.
.	1d	.	1a
.	.	2f#	.
=66	=66	=66	=66
1G	1.d	2g	2b
.	.	2g	2b
1G	.	1g	1b
.	[2e	.	.
=67	=67	=67	=67
2A	2e]	2e	2cc
2A	4d	2f#	2cc
.	4c	.	.
1G	2d	2g	1b
.	2B	[2g	.
=68	=68	=68	=68
1E	2c	4g]	1g
.	.	4f	.
.	2B	1e	.
1F	1A	.	[1a
.	.	2d	.
=69	=69	=69	=69
1E	1B	1e	2a]
.	.	.	2g#
[1C	[1c	2r	2r
.	.	[2g	[2ee
=70	=70	=70	=70
2C]	2c]	2g]	2ee]
2C	2c	2g	2ee
[1C	1c	2g	[1ee
.	.	[2g	.
=71	=71	=71	=71
1C]	2r	2g]	0ee]
.	1g	2g	.
2r	.	2.c	.
[2c	2g	.	.
.	.	4d	.
=72	=72	=72	=72
2c]	2c	4e	2r
.	.	4f	.
2c	2e	4g	1cc
.	.	4e	.
[1F	2.f	[1a	.
.	.	.	2cc
.	8e	.	.
.	8d	.	.
=73	=73	=73	=73
2F]	1.c	2a]	2f
2E	.	2g	2g
1F	.	1f	[1a
.	4A	.	.
.	4B	.	.
=74	=74	=74	=74
1C	4c	1e	2a]
.	4d	.	.
.	2e	.	2g
1D	1d	1a	1f
=75	=75	=75	=75
1A	0c#	2a	1e
.	.	2a	.
1A	.	1a	2r
.	.	.	2ee
=76	=76	=76	=76
1c	2r	1g	1ee
.	2e	.	.
1G	1g	1b-	1dd
=77	=77	=77	=77
2r	1d	2a	1ff
2d	.	2f	.
2c	1r	2g	2ee
2A	.	2a	2cc
=78	=78	=78	=78
2B-	1r	2d	2dd
2A	.	4a	2ee
.	.	4b	.
2.F	1f	4cc	2.a
.	.	4a	.
.	.	[2cc	.
4G	.	.	4b
=79	=79	=79	=79
1A	2e	4cc]	2.cc
.	.	4b	.
.	2c	1a	.
.	.	.	8b
.	.	.	8a
1r	2d	.	1b
.	2e	2g#	.
=80	=80	=80	=80
2r	2A	2.a	2.cc
1c	1A	.	.
.	.	8g	4dd
.	.	8f	.
.	.	[1e	[1ee
2B	2G	.	.
=81	=81	=81	=81
1A	2.c	1e]	1ee]
.	4d	.	.
2G	2e	1r	1r
[2A	[2f	.	.
=82	=82	=82	=82
4A]	4f]	1r	1r
4G	4e	.	.
2E	2e	.	.
1F	2d	2r	[1a
.	2c	[2cc	.
=83	=83	=83	=83
1E	0e	2cc]	2a]
.	.	2b	2g
2.A	.	1a	2.cc
4B	.	.	4dd
=84	=84	=84	=84
2c	0r	2g	2ee
2A	.	2.a	2.ff
2c	.	.	.
.	.	4g	4ee
2c	.	2e	[2ee
=85	=85	=85	=85
1d	2r	1f	2ee]
.	1d	.	2dd
2A	.	2e	2ee
[2A	2c#	[2e	[2a
=86	=86	=86	=86
2A]	1c#	2e]	2a]
2A	.	2e	2a
2A	1c#	2e	2a
2A	.	2f#	2a
=87	=87	=87	=87
1G	1d	2g	1b
.	.	2g	.
2.F	1f	[1a	[1cc
4G	.	.	.
=88	=88	=88	=88
4A	1e	1a]	1cc]
4B	.	.	.
1c	.	.	.
.	1d	1g	1dd
2B	.	.	.
=89	=89	=89	=89
1c	2c	2r	1ee
.	2A	2a	.
1r	1c	1g	2r
.	.	.	2ee
=90	=90	=90	=90
0r	2.d	2f	1dd
.	.	4f	.
.	4e	4g	.
.	4f	4a	1cc
.	4g	4b	.
.	2a	[2cc	.
=91	=91	=91	=91
1r	2g	2cc]	2dd
.	2g	2b	2dd
1A	2c	[1cc	[1ee
.	2a	.	.
=92	=92	=92	=92
1c	1g	1cc]	1ee]
4F	1f	1a	1r
4G	.	.	.
4A	.	.	.
4B	.	.	.
=93	=93	=93	=93
1c	1e	1g	2r
.	.	.	2ee
1d	[1a	2f	1dd
.	.	4f	.
.	.	4g	.
=94	=94	=94	=94
1f	1a]	4a	2cc
.	.	4b	.
.	.	2cc	4cc
.	.	.	4dd
1e	1g	2cc	4ee
.	.	.	4ff
.	.	2b	2gg
=95	=95	=95	=95
1d	1a	1dd	2gg
.	.	.	2ff#
[1c	[1e	[1g	1gg
=96	=96	=96	=96
1c]	2e]	2g]	1ee
.	2f	2a	.
2.G	1g	[1b-	[1dd
4A	.	.	.
=97	=97	=97	=97
1B-	2f	1b-]	1dd]
.	1g	.	.
[1c	.	1a	[1cc
.	[2f	.	.
=98	=98	=98	=98
1c]	2f]	1g	1cc]
.	2e	.	.
1F	1f	1a	2cc
.	.	.	[2ff
=99	=99	=99	=99
1D	2r	1a	4ff]
.	.	.	4ee
.	1f	.	1dd
2.A	.	1a	.
.	[2e	.	[2cc
4B	.	.	.
=100	=100	=100	=100
2c	2e]	1g	2cc]
2G	2d	.	2b
2A	2c	2e	2cc
2A	2c	2f#	2cc
=101	=101	=101	=101
1G	1d	1g	1b
1r	1r	1r	1r
*-	*-	*-	*-
!!!CDT: 1525/^1526/-1594/2/2
!!!OCY: Italia
!!!AGN: Mass (Parody)
!!!AST: renaissance, vocal
!!!ASW: Motet 1563 (Palestrina)
!!!PWK: Masses, Book 6
!!!RNB: Cadence finals: D,A,C
!!!YOR: Le Opere Complete, v. 21, p. 1
!!!YOO: Rome, Italy: Fratelli Scalera
!!!END: 1992//
!!!EED: John Miller
!!!YEC: Copyright 2000, John Miller
!!!YEN: United States of America
!!!YEM: Rights to all derivative electronic formats reserved.
!!!YEM: Refer to licensing agreement for further details.
!!!YEM: This file must be accompanied by the licensing agreement.
!!!YEM: A copy of the licensing agreement may be found at http://www.music-cog.ohio-state.edu/HumdrumDatabases/Palestrina/license.txt
!!!EMD: converted to Humdrum by Bret Aarden
